X: 2105
T:Bouree de Concours
M:2/4
L:1/8
Q:1/4=100
S:Blowzabella
K:Gm
d2 ^cd|B3 A|G>A BG|AD ED|d2 ^cd|B3 A|G>A BG|A4:|!
D>E ^FD|G>A BG|^F>G AF|G>B A^F|D>E ^FD|G>A BG|^F>G AF|G2 G2:|!
